build/category/IconsSolid.svg

<svg xmlns="http://www.w3.org/2000/svg" fill="none" viewBox="0 0 24 24" focusable="false"><path d="M0 0H24V24H0z"/><path fill="#74767B" fill-rule="evenodd" d="M12.4653 10.1045C12.2392 10.5045 12.5281 10.9998 12.9876 10.9998L19.9305 10.9998C20.39 10.9998 20.679 10.5045 20.4528 10.1045L16.9814 3.96496C16.7517 3.55872 16.1665 3.55872 15.9368 3.96496L12.4653 10.1045ZM4.29992 3.69977C3.96855 3.69977 3.69992 3.9684 3.69992 4.29977L3.69992 10.3998C3.69992 10.7311 3.96855 10.9998 4.29992 10.9998L10.3999 10.9998C10.7313 10.9998 10.9999 10.7311 10.9999 10.3998L10.9999 4.29977C10.9999 3.9684 10.7313 3.69977 10.3999 3.69977L4.29992 3.69977ZM7.06129 12.6716C7.2956 12.4373 7.6755 12.4373 7.90982 12.6716L11.3291 16.0909C11.5634 16.3252 11.5634 16.7051 11.3291 16.9394L7.90982 20.3587C7.6755 20.593 7.2956 20.593 7.06129 20.3587L3.64204 16.9394C3.40773 16.7051 3.40773 16.3252 3.64204 16.0909L7.06129 12.6716ZM16.459 12.6181C14.3378 12.6181 12.6182 14.3378 12.6182 16.459C12.6182 18.5802 14.3378 20.2998 16.459 20.2998C18.5803 20.2998 20.2999 18.5802 20.2999 16.459C20.2999 14.3378 18.5803 12.6181 16.459 12.6181Z"/></svg>

<svg xmlns="http://www.w3.org/2000/svg" fill="none" viewBox="0 0 24 24" focusable="false"><path fill="#74767B" fill-rule="evenodd" d="M12.46 10.1c-.23.4.06.89.52.89h6.95c.46 0 .74-.49.52-.89l-3.47-6.14a.602.602 0 0 0-1.05 0zM4.29 3.69c-.33 0-.6.27-.6.6v6.1c0 .34.27.6.6.6h6.1c.34 0 .61-.26.61-.6v-6.1c0-.33-.27-.6-.61-.6zm2.77 8.98a.58.58 0 0 1 .84 0l3.42 3.42c.24.23.24.61 0 .84L7.9 20.35a.58.58 0 0 1-.84 0l-3.42-3.42a.58.58 0 0 1 0-.84zm9.39-.06a3.841 3.841 0 0 0 0 7.68c2.13 0 3.84-1.71 3.84-3.84 0-2.12-1.71-3.84-3.84-3.84"/></svg>
